src/assets/icons/categories/icon-cat-excludeFromBudgetCat.svg

<?xml version="1.0" encoding="UTF-8"?>
<svg width="32px" height="32px" viewBox="0 0 32 32" version="1.1" xmlns="http://www.w3.org/2000/svg" xmlns:xlink="http://www.w3.org/1999/xlink">
    <!-- Generator: Sketch 48.2 (47327) - http://www.bohemiancoding.com/sketch -->
    <title>icons/32/icon-32-out-budget</title>
    <desc>Created with Sketch.</desc>
    <defs/>
    <g id="Symbols" stroke="none" stroke-width="1" fill="none" fill-rule="evenodd">
        <g id="icons/32/icon-32-out-budget" fill-rule="nonzero">
            <circle id="Oval" fill="#6984CE" cx="16" cy="16" r="16"/>
            <path d="M24.75,13 C25.3947973,12.9598877 25.951972,13.445744 26,14.09 L26,23.91 C25.951972,24.554256 25.3947973,25.0401123 24.75,25 L7.25,25 C6.60520273,25.0401123 6.04802805,24.554256 6,23.91 L6,14.09 C6.04802805,13.445744 6.60520273,12.9598877 7.25,13 L24.75,13 Z M24.75,12 L7.25,12 C6.05330981,11.9605592 5.04878169,12.8936542 5,14.09 L5,23.91 C5.04878169,25.1063458 6.05330981,26.0394408 7.25,26 L24.75,26 C25.9466902,26.0394408 26.9512183,25.1063458 27,23.91 L27,14.09 C26.9512183,12.8936542 25.9466902,11.9605592 24.75,12 Z" id="Shape" fill="#FFFFFF"/>
            <path d="M23.88,14 L8.12,14 C7.84970871,13.96639 7.57740269,14.044487 7.36601024,14.2162434 C7.15461778,14.3879997 7.02243192,14.6385523 7,14.91 L7,23.09 C7.02243192,23.3614477 7.15461778,23.6120003 7.36601024,23.7837566 C7.57740269,23.955513 7.84970871,24.03361 8.12,24 L23.88,24 C24.1502913,24.03361 24.4225973,23.955513 24.6339898,23.7837566 C24.8453822,23.6120003 24.9775681,23.3614477 25,23.09 L25,14.91 C24.9775681,14.6385523 24.8453822,14.3879997 24.6339898,14.2162434 C24.4225973,14.044487 24.1502913,13.96639 23.88,14 Z M10,19.9923531 C9.44771525,19.9923531 9,19.5446378 9,18.9923531 C9,18.4400683 9.44771525,17.9923531 10,17.9923531 C10.5522847,17.9923531 11,18.4400683 11,18.9923531 C11,19.5446378 10.5522847,19.9923531 10,19.9923531 Z M16,21.5 C14.6192881,21.5 13.5,20.3807119 13.5,19 C13.5,17.6192881 14.6192881,16.5 16,16.5 C17.3807119,16.5 18.5,17.6192881 18.5,19 C18.5,20.3807119 17.3807119,21.5 16,21.5 Z M22,19.9923531 C21.4477153,19.9923531 21,19.5446378 21,18.9923531 C21,18.4400683 21.4477153,17.9923531 22,17.9923531 C22.5522847,17.9923531 23,18.4400683 23,18.9923531 C23,19.5446378 22.5522847,19.9923531 22,19.9923531 Z" id="Shape" fill="#FFFFFF"/>
            <path d="M19.85,5.15 C19.6567003,4.95670034 19.3432997,4.95670034 19.15,5.15 C18.9567003,5.34329966 18.9567003,5.65670034 19.15,5.85 L20.29,7 L15.5,7 C15.2238576,7 15,7.22385763 15,7.5 C15,7.77614237 15.2238576,8 15.5,8 L20.29,8 L19.15,9.15 C19.0099401,9.29285015 18.9685122,9.50543561 19.044684,9.69042423 C19.1208558,9.87541285 19.2999624,9.99718997 19.5,10 C19.6326039,10.0016165 19.7597197,9.94713835 19.85,9.85 L21.85,7.85 C21.9466772,7.75926667 22.0015186,7.63258591 22.0015186,7.5 C22.0015186,7.36741409 21.9466772,7.24073333 21.85,7.15 L19.85,5.15 Z" id="Fill-333" fill="#FFFFFF"/>
            <path d="M9.99848135,4.5 C9.99848135,4.63258591 10.0533228,4.75926667 10.15,4.85 L12.15,6.85 C12.2402803,6.94713835 12.3673961,7.00161655 12.5,7 C12.7000376,6.99718997 12.8791442,6.87541285 12.955316,6.69042423 C13.0314878,6.50543561 12.9900599,6.29285015 12.85,6.15 L11.71,5 L16.5,5 C16.7761424,5 17,4.77614237 17,4.5 C17,4.22385763 16.7761424,4 16.5,4 L11.71,4 L12.85,2.85 C13.0432997,2.65670034 13.0432997,2.34329966 12.85,2.15 C12.6567003,1.95670034 12.3432997,1.95670034 12.15,2.15 L10.15,4.15 C10.0533228,4.24073333 9.99848135,4.36741409 9.99848135,4.5 Z" id="Fill-333-2" fill="#FFFFFF"/>
        </g>
    </g>
</svg>

<svg xmlns="http://www.w3.org/2000/svg" viewBox="0 0 32 32"><g fill="none" fill-rule="evenodd"><circle cx="16" cy="16" r="16" fill="#6984CE"/><path fill="#FFFFFF" fill-rule="nonzero" d="M24.75 13c.64-.04 1.2.45 1.25 1.09v9.82c-.05.64-.6 1.13-1.25 1.09H7.25c-.64.04-1.2-.45-1.25-1.09v-9.82c.05-.64.6-1.13 1.25-1.09h17.5zm0-1H7.25c-1.2-.04-2.2.9-2.25 2.09v9.82A2.18 2.18 0 0 0 7.25 26h17.5c1.2.04 2.2-.9 2.25-2.09v-9.82A2.18 2.18 0 0 0 24.75 12z"/><path fill="#FFFFFF" fill-rule="nonzero" d="M23.88 14H8.12a1 1 0 0 0-1.12.91v8.18a1 1 0 0 0 1.12.91h15.76a1 1 0 0 0 1.12-.91v-8.18a1 1 0 0 0-1.12-.91zM10 20a1 1 0 1 1 0-2 1 1 0 0 1 0 2zm6 1.5a2.5 2.5 0 1 1 0-5 2.5 2.5 0 0 1 0 5zm6-1.5a1 1 0 1 1 0-2 1 1 0 0 1 0 2z"/><path fill="#FFFFFF" d="M19.85 5.15a.5.5 0 0 0-.7.7L20.29 7H15.5a.5.5 0 1 0 0 1h4.79l-1.14 1.15a.5.5 0 0 0 .35.85c.13 0 .26-.05.35-.15l2-2a.48.48 0 0 0 0-.7l-2-2zM10 4.5c0 .13.05.26.15.35l2 2c.09.1.22.15.35.15a.5.5 0 0 0 .35-.85L11.71 5h4.79a.5.5 0 1 0 0-1h-4.79l1.14-1.15a.5.5 0 1 0-.7-.7l-2 2c-.1.1-.15.22-.15.35z"/></g></svg>
